X:104
T:Wake Magdaline. Le4.104
M:6/8
L:1/8
Q:3/8=60
B:L.Leadley MS#4 c1850
Z:Village Music Project, 2016 Ruairidh Greig
K:D
{e/}d/>c/|dFGA2A|AGGF2F|E/>F/ GE F/>G/A2-|A3A z{e/}d/>c/|
dFGA2A|AGGF2F|^G/>A/ B>G A/>B/ c>A|(Bcd)e2z||
(ded) edc|B2F/A/^G/B/ A a|b/a/g/f/e/f/g3|f/e/d/c/B/e/A2A|
A>BAD2d|dcB (BA)A|A>BAD2d|dcB A2G|
F2F FEF|FEFA2^A|B2B B^AB|B^ABd2d|
c3d3|B3c3|(F3 d2)c|(B3c2)||
{e}d/>c/|dFGA2A|(AGG)F2F|EFG FGA|A3A2 {e/}d/>c/|
(dF)GA2{d/}(=c/>B/)|=cE=FG2{=c/}_B/>A/|(_BD)E (=F{G/F/}E)D|AE=FD2|]

